**harmony	**harte	**kern	**silbe	**kern.1	**silbe.1	**rhyme	**timestamp	**phrase
*M4/4	*M4/4	*ICvox	*	*ICvox	*	*	*	*
*	*	*Imale	*	*Imale	*	*	*	*
*	*	*VRlead	*	*VRlead	*	*	*	*
*	*	*Hstimme	*	*Nstimme	*	*	*	*
*G:	*G:	*G:	*	*G:	*	*	*	*
*	*	*M4/4	*	*M4/4	*	*	*	*
*	*	*clefG2	*	*clefG2	*	*	*	*
1r;	1r	r;	.	r;	.	.	0	.
=1	=1	=1	=1	=1	=1	=1	=1	=1
*>Letter>A	*>Letter>A	*>Letter>A	*>Letter>A	*>Letter>A	*>Letter>A	*>Letter>A	*>Letter>A	*>Letter>A
*>Label>Intro	*>Label>Intro	*>Label>Intro	*>Label>Intro	*>Label>Intro	*>Label>Intro	*>Label>Intro	*>Label>Intro	*>Label>Intro
1GM	G:maj	1r	.	1r	.	.	0.232	newline
=2	=2	=2	=2	=2	=2	=2	=2	=2
1GM	G:maj	1r	.	1r	.	.	2.54	.
=3	=3	=3	=3	=3	=3	=3	=3	=3
1GM	G:maj	1r	.	1r	.	.	4.848	.
=4	=4	=4	=4	=4	=4	=4	=4	=4
1GM	G:maj	1r	.	1r	.	.	7.157	.
=5	=5	=5	=5	=5	=5	=5	=5	=5
*>Letter>B	*>Letter>B	*>Letter>B	*>Letter>B	*>Letter>B	*>Letter>B	*>Letter>B	*>Letter>B	*>Letter>B
*>Label>Verse	*>Label>Verse	*>Label>Verse	*>Label>Verse	*>Label>Verse	*>Label>Verse	*>Label>Verse	*>Label>Verse	*>Label>Verse
1GM	G:maj	8E	sit-	1r	.	.	9.465	newline
.	.	8G	-tin	.	.	.	.	.
.	.	8G	in	.	.	.	.	.
.	.	8G	the	.	.	.	.	.
.	.	8A	morn-	.	.	.	.	.
.	.	8G	_	.	.	.	.	.
.	.	8G	-in	.	.	.	.	.
.	.	8B-	sun	.	.	A	.	.
=6	=6	=6	=6	=6	=6	=6	=6	=6
1BM	B:maj	4B	_	1r	.	.	11.787	.
.	.	2r	.	.	.	.	.	.
.	.	8B	I'll	.	.	.	.	.
.	.	8B	be	.	.	.	.	.
=7	=7	=7	=7	=7	=7	=7	=7	=7
1CM	C:maj	8c	sit-	1r	.	.	14.109	.
.	.	8c	-tin	.	.	.	.	.
.	.	8c	when	.	.	.	.	.
.	.	8c	the	.	.	.	.	.
.	.	8c	eve-	.	.	.	.	.
.	.	8B	_	.	.	.	.	.
.	.	8B-	-ning	.	.	.	.	.
.	.	16A	comes	.	.	A	.	.
.	.	16B	_	.	.	.	.	.
=8	=8	=8	=8	=8	=8	=8	=8	=8
1AM	A:maj	4A	_	1r	.	.	16.431	.
.	.	4r	.	.	.	.	.	.
.	.	2r	.	.	.	.	.	.
=9	=9	=9	=9	=9	=9	=9	=9	=9
1GM	G:maj	8E	watch-	1r	.	.	18.753	newline
.	.	4G	-in	.	.	.	.	.
.	.	8G	the	.	.	.	.	.
.	.	4A	ships	.	.	.	.	.
.	.	8G	roll	.	.	.	.	.
.	.	16B-	in	.	.	B	.	.
.	.	[16B	_	.	.	.	.	.
=10	=10	=10	=10	=10	=10	=10	=10	=10
1BM	B:maj	16B]	_	1r	.	.	21.07	.
.	.	16A	_	.	.	.	.	.
.	.	8G	_	.	.	.	.	.
.	.	4r	.	.	.	.	.	.
.	.	8r	.	.	.	.	.	.
.	.	8B	and	.	.	.	.	.
.	.	8B	then	.	.	.	.	.
.	.	8B	I	.	.	.	.	.
=11	=11	=11	=11	=11	=11	=11	=11	=11
1CM	C:maj	8c	watch	1r	.	.	23.388	.
.	.	8c	'em	.	.	.	.	.
.	.	8c	roll	.	.	.	.	.
.	.	8c	a-	.	.	.	.	.
.	.	8d	-way	.	.	C	.	.
.	.	8B	_	.	.	.	.	.
.	.	8B	a-	.	.	.	.	.
.	.	8B	-gain	.	.	B	.	.
=12	=12	=12	=12	=12	=12	=12	=12	=12
1AM	A:maj	4A	_	1r	.	.	25.705	.
.	.	8r	.	.	.	.	.	.
.	.	16B	yeah	.	.	.	.	.
.	.	16A	_	.	.	.	.	.
.	.	8G	_	.	.	.	.	.
.	.	8r	.	.	.	.	.	.
.	.	8r	.	.	.	.	.	.
.	.	8E	I'm	.	.	.	.	.
=13	=13	=13	=13	=13	=13	=13	=13	=13
*>Letter>C	*>Letter>C	*>Letter>C	*>Letter>C	*>Letter>C	*>Letter>C	*>Letter>C	*>Letter>C	*>Letter>C
*>Label>Chorus	*>Label>Chorus	*>Label>Chorus	*>Label>Chorus	*>Label>Chorus	*>Label>Chorus	*>Label>Chorus	*>Label>Chorus	*>Label>Chorus
1GM	G:maj	8G	sit-	1r	.	.	28.022	newline
.	.	8G	-tin	.	.	.	.	.
.	.	8G	on	.	.	.	.	.
.	.	8G	the	.	.	.	.	.
.	.	8G	dock	.	.	.	.	.
.	.	8G	of	.	.	.	.	.
.	.	8G	the	.	.	.	.	.
.	.	8A	bay	.	.	C	.	.
=14	=14	=14	=14	=14	=14	=14	=14	=14
1Em	E:min(9)	16G	_	1r	.	.	30.34	.
.	.	16E	_	.	.	.	.	.
.	.	8r	.	.	.	.	.	.
.	.	4r	.	.	.	.	.	.
.	.	8A	watch-	.	.	.	.	.
.	.	8B	-in	.	.	.	.	.
.	.	8B	the	.	.	.	.	.
.	.	16d	tide	.	.	.	.	.
.	.	16e	_	.	.	.	.	.
=15	=15	=15	=15	=15	=15	=15	=15	=15
1GM	G:maj	8d	_	1r	.	.	32.658	.
.	.	16B	_	.	.	.	.	.
.	.	16A	_	.	.	.	.	.
.	.	8G	_	.	.	.	.	.
.	.	8r	.	.	.	.	.	.
.	.	8B	roll	.	.	.	.	.
.	.	8A	_	.	.	.	.	.
.	.	8G	a-	.	.	.	.	.
.	.	8A	-way	.	.	C	.	.
=16	=16	=16	=16	=16	=16	=16	=16	=16
1Em	E:min(9)	16G	_	1r	.	.	34.976	.
.	.	16E	_	.	.	.	.	.
.	.	8r	.	.	.	.	.	.
.	.	8r	.	.	.	.	.	.
.	.	8e	ooh	.	.	.	.	.
.	.	8G	_	.	.	.	.	.
.	.	8A	I'm	.	.	.	.	.
.	.	4A	just	.	.	.	.	.
=17	=17	=17	=17	=17	=17	=17	=17	=17
1GM	G:maj	8G	sit-	1r	.	.	37.294	newline
.	.	8G	-tin	.	.	.	.	.
.	.	8G	on	.	.	.	.	.
.	.	8G	the	.	.	.	.	.
.	.	8G	dock	.	.	.	.	.
.	.	8G	of	.	.	.	.	.
.	.	8G	the	.	.	.	.	.
.	.	8A	bay	.	.	C	.	.
=18	=18	=18	=18	=18	=18	=18	=18	=18
1AM	A:maj	16G	_	1r	.	.	39.6	.
.	.	16E	_	.	.	.	.	.
.	.	8r	.	.	.	.	.	.
.	.	4r	.	.	.	.	.	.
.	.	8A	wast-	.	.	C	.	.
.	.	8G	_	.	.	.	.	.
.	.	8E	-in	.	.	.	.	.
.	.	[8G	time	.	.	.	.	.
=19	=19	=19	=19	=19	=19	=19	=19	=19
1GM	G:maj	4.G]	_	1r	.	.	41.905	.
.	.	16B	_	.	.	.	.	.
.	.	16A	_	.	.	.	.	.
.	.	2G	_	.	.	.	.	.
=20	=20	=20	=20	=20	=20	=20	=20	=20
1EM	E:maj	2E	_	1r	.	.	44.211	.
.	.	4r	.	.	.	.	.	.
.	.	8r	.	.	.	.	.	.
.	.	8E	I	.	.	.	.	.
=21	=21	=21	=21	=21	=21	=21	=21	=21
*>Letter>B	*>Letter>B	*>Letter>B	*>Letter>B	*>Letter>B	*>Letter>B	*>Letter>B	*>Letter>B	*>Letter>B
*>Label>Verse	*>Label>Verse	*>Label>Verse	*>Label>Verse	*>Label>Verse	*>Label>Verse	*>Label>Verse	*>Label>Verse	*>Label>Verse
1GM	G:maj	8G	left	1r	.	.	46.517	newline
.	.	4.G	my	.	.	.	.	.
.	.	8A	home	.	.	.	.	.
.	.	8G	_	.	.	.	.	.
.	.	8G	in	.	.	.	.	.
.	.	8B-	Georg-	.	.	D	.	.
=22	=22	=22	=22	=22	=22	=22	=22	=22
1BM	B:maj	8B	-ia	1r	.	.	48.852	.
.	.	16B	_	.	.	.	.	.
.	.	16A	_	.	.	.	.	.
.	.	8G	_	.	.	.	.	.
.	.	8r	.	.	.	.	.	.
.	.	4r	.	.	.	.	.	.
.	.	8r	.	.	.	.	.	.
.	.	[8c	head-	.	.	.	.	.
=23	=23	=23	=23	=23	=23	=23	=23	=23
1CM	C:maj	8c]	_	1r	.	.	51.188	.
.	.	8c	-ed	.	.	.	.	.
.	.	8c	for	.	.	.	.	.
.	.	8c	the	.	.	.	.	.
.	.	8c	'Fris-	.	.	.	.	.
.	.	4B	-co	.	.	.	.	.
.	.	8B	bay	.	.	C	.	.
=24	=24	=24	=24	=24	=24	=24	=24	=24
1AM	A:maj	4A	_	1r	.	.	53.523	.
.	.	4r	.	.	.	.	.	.
.	.	4r	.	.	.	.	.	.
.	.	8r	.	.	.	.	.	.
.	.	8E	'cause	.	.	.	.	.
=25	=25	=25	=25	=25	=25	=25	=25	=25
1GM	G:maj	8G	I've	1r	.	.	55.858	newline
.	.	4.G	had	.	.	.	.	.
.	.	8A	no-	.	.	.	.	.
.	.	8G	-thing	.	.	.	.	.
.	.	8G	to	.	.	.	.	.
.	.	16B-	live	.	.	.	.	.
.	.	[16B	_	.	.	.	.	.
=26	=26	=26	=26	=26	=26	=26	=26	=26
1BM	B:maj	8B]	_	1r	.	.	58.213	.
.	.	16B	for	.	.	D	.	.
.	.	16A	_	.	.	.	.	.
.	.	8G	_	.	.	.	.	.
.	.	8r	.	.	.	.	.	.
.	.	8r	.	.	.	.	.	.
.	.	8G	and	.	.	.	.	.
.	.	8B	look	.	.	.	.	.
.	.	8B	like	.	.	.	.	.
=27	=27	=27	=27	=27	=27	=27	=27	=27
1CM	C:maj	8c	no-	1r	.	.	60.567	.
.	.	8c	-thin's	.	.	.	.	.
.	.	8c	gon-	.	.	.	.	.
.	.	8c	-na	.	.	.	.	.
.	.	8c	come	.	.	.	.	.
.	.	8B	my	.	.	.	.	.
.	.	8B-	_	.	.	.	.	.
.	.	[8A	way	.	.	C	.	.
=28	=28	=28	=28	=28	=28	=28	=28	=28
1AM	A:maj	8A]	_	1r	.	.	62.922	.
.	.	8r	.	.	.	.	.	.
.	.	8r	.	.	.	.	.	.
.	.	16B	So	.	.	.	.	.
.	.	16A	_	.	.	.	.	.
.	.	8G	_	.	.	.	.	.
.	.	8G	I'm	.	.	.	.	.
.	.	8G	just	.	.	.	.	.
.	.	8E	gon'	.	.	.	.	.
=29	=29	=29	=29	=29	=29	=29	=29	=29
*>Letter>C	*>Letter>C	*>Letter>C	*>Letter>C	*>Letter>C	*>Letter>C	*>Letter>C	*>Letter>C	*>Letter>C
*>Label>Chorus	*>Label>Chorus	*>Label>Chorus	*>Label>Chorus	*>Label>Chorus	*>Label>Chorus	*>Label>Chorus	*>Label>Chorus	*>Label>Chorus
1GM	G:maj	4G	sit	1r	.	.	65.277	newline
.	.	8G	on	.	.	.	.	.
.	.	8E	the	.	.	.	.	.
.	.	8G	dock	.	.	.	.	.
.	.	8G	of	.	.	.	.	.
.	.	8G	the	.	.	.	.	.
.	.	8A	bay	.	.	C	.	.
=30	=30	=30	=30	=30	=30	=30	=30	=30
1Em	E:min(9)	16G	_	1r	.	.	67.609	.
.	.	16E	_	.	.	.	.	.
.	.	8r	.	.	.	.	.	.
.	.	4r	.	.	.	.	.	.
.	.	8A	watch-	.	.	.	.	.
.	.	8B	-in	.	.	.	.	.
.	.	8B	the	.	.	.	.	.
.	.	16d	tide	.	.	.	.	.
.	.	16e	_	.	.	.	.	.
=31	=31	=31	=31	=31	=31	=31	=31	=31
1GM	G:maj	8d	_	1r	.	.	69.942	.
.	.	16B	_	.	.	.	.	.
.	.	16A	_	.	.	.	.	.
.	.	8G	_	.	.	.	.	.
.	.	8r	.	.	.	.	.	.
.	.	8B	roll	.	.	.	.	.
.	.	8A	_	.	.	.	.	.
.	.	8G	a-	.	.	.	.	.
.	.	8A	-way	.	.	C	.	.
=32	=32	=32	=32	=32	=32	=32	=32	=32
1Em	E:min(9)	16G	_	1r	.	.	72.274	.
.	.	16E	_	.	.	.	.	.
.	.	8r	.	.	.	.	.	.
.	.	8r	.	.	.	.	.	.
.	.	8r	.	.	.	.	.	.
.	.	4e	ooh	.	.	.	.	.
.	.	8A	_	.	.	.	.	.
.	.	8E	I'm	.	.	.	.	.
=33	=33	=33	=33	=33	=33	=33	=33	=33
1GM	G:maj	8G	sit-	1r	.	.	74.607	newline
.	.	8G	-tin	.	.	.	.	.
.	.	8G	on	.	.	.	.	.
.	.	8G	the	.	.	.	.	.
.	.	8G	dock	.	.	.	.	.
.	.	8G	of	.	.	.	.	.
.	.	8G	the	.	.	.	.	.
.	.	8A	bay	.	.	C	.	.
=34	=34	=34	=34	=34	=34	=34	=34	=34
1AM	A:maj	16G	_	1r	.	.	76.932	.
.	.	16E	_	.	.	.	.	.
.	.	8r	.	.	.	.	.	.
.	.	4r	.	.	.	.	.	.
.	.	8A	wast-	.	.	.	.	.
.	.	8G	_	.	.	.	.	.
.	.	8E	-in	.	.	.	.	.
.	.	[8G	time	.	.	.	.	.
=35	=35	=35	=35	=35	=35	=35	=35	=35
1GM	G:maj	4.G]	_	1r	.	.	79.256	.
.	.	16B	_	.	.	.	.	.
.	.	16A	_	.	.	.	.	.
.	.	4.G	_	.	.	.	.	.
.	.	[8E	_	.	.	.	.	.
=36	=36	=36	=36	=36	=36	=36	=36	=36
1EM	E:maj	2E]	_	1r	.	.	81.581	.
.	.	2r	.	.	.	.	.	.
=37	=37	=37	=37	=37	=37	=37	=37	=37
*>Letter>D	*>Letter>D	*>Letter>D	*>Letter>D	*>Letter>D	*>Letter>D	*>Letter>D	*>Letter>D	*>Letter>D
*>Label>Bridge	*>Label>Bridge	*>Label>Bridge	*>Label>Bridge	*>Label>Bridge	*>Label>Bridge	*>Label>Bridge	*>Label>Bridge	*>Label>Bridge
2GM	G:maj	4r	.	1r	.	.	83.905	newline
.	.	8r	.	.	.	.	.	.
.	.	8g	Look	.	.	.	.	.
2DM	D:maj	4e	like	.	.	.	85.061	.
.	.	8r	.	.	.	.	.	.
.	.	8g	no-	.	.	.	.	.
=38	=38	=38	=38	=38	=38	=38	=38	=38
1CM	C:maj	8e	-thin's	1r	.	.	86.216	.
.	.	8e	gon-	.	.	.	.	.
.	.	8d	-na	.	.	.	.	.
.	.	16B	change	.	.	C	.	.
.	.	16A	_	.	.	.	.	.
.	.	8G	_	.	.	.	.	.
.	.	16A	_	.	.	.	.	.
.	.	[16B	_	.	.	.	.	.
.	.	8B]	_	.	.	.	.	.
.	.	16A	_	.	.	.	.	.
.	.	[16G	_	.	.	.	.	.
=39	=39	=39	=39	=39	=39	=39	=39	=39
2GM	G:maj	4G]	_	1r	.	.	88.527	.
.	.	8r	.	.	.	.	.	.
.	.	[8e	Ev	.	.	.	.	.
2DM	D:maj	8e]	_	.	.	.	89.682	.
.	.	8d	-ry-	.	.	.	.	.
.	.	[4d	-thing	.	.	.	.	.
=40	=40	=40	=40	=40	=40	=40	=40	=40
1CM	C:maj	8d]	_	1r	.	.	90.837	.
.	.	16B	still	.	.	.	.	.
.	.	16A	_	.	.	.	.	.
.	.	8G	_	.	.	.	.	.
.	.	8G	re-	.	.	.	.	.
.	.	8B	-mains	.	.	C	.	.
.	.	8A	the	.	.	.	.	.
.	.	8A	same	.	.	C	.	.
.	.	[8G	_	.	.	.	.	.
=41	=41	=41	=41	=41	=41	=41	=41	=41
2GM	G:maj	8G]	_	1r	.	.	93.148	newline
.	.	8r	.	.	.	.	.	.
.	.	8r	.	.	.	.	.	.
.	.	8g	I	.	.	.	.	.
2DM	D:maj	8e	can't	.	.	.	94.315	.
.	.	8.e	do	.	.	.	.	.
.	.	[16d	what	.	.	.	.	.
.	.	8d]	_	.	.	.	.	.
=42	=42	=42	=42	=42	=42	=42	=42	=42
2CM	C:maj	8g	ten	1r	.	.	95.483	.
.	.	8e	peop-	.	.	.	.	.
.	.	8d	-le	.	.	.	.	.
.	.	8e	tell	.	.	.	.	.
2GM	G:maj	8d	me	.	.	.	96.65	.
.	.	8B	to	.	.	.	.	.
.	.	8A	do	.	.	.	.	.
.	.	8G	_	.	.	.	.	.
=43	=43	=43	=43	=43	=43	=43	=43	=43
1FM	F:maj	4r	.	1r	.	.	97.817	.
.	.	8f	so	.	.	.	.	.
.	.	8f	I	.	.	.	.	.
.	.	8f	guess	.	.	.	.	.
.	.	8f	I'll	.	.	.	.	.
.	.	8d	re-	.	.	.	.	.
.	.	16f	-main	.	.	.	.	.
.	.	16e	_	.	.	.	.	.
=44	=44	=44	=44	=44	=44	=44	=44	=44
1DM	D:maj	8d	_	1r	.	.	100.152	.
.	.	8B	the	.	.	.	.	.
.	.	16f	same	.	.	C	.	.
.	.	16e	_	.	.	.	.	.
.	.	[8d	_	.	.	.	.	.
.	.	8d]	_	.	.	.	.	.
.	.	8r	.	.	.	.	.	.
.	.	4r	.	.	.	.	.	.
=45	=45	=45	=45	=45	=45	=45	=45	=45
*>Letter>B	*>Letter>B	*>Letter>B	*>Letter>B	*>Letter>B	*>Letter>B	*>Letter>B	*>Letter>B	*>Letter>B
*>Label>Verse	*>Label>Verse	*>Label>Verse	*>Label>Verse	*>Label>Verse	*>Label>Verse	*>Label>Verse	*>Label>Verse	*>Label>Verse
1GM	G:maj	8E	sit-	1r	.	.	102.486	newline
.	.	8G	-tin	.	.	.	.	.
.	.	4G	here	.	.	.	.	.
.	.	8A	rest-	.	.	.	.	.
.	.	8G	-ing	.	.	.	.	.
.	.	8G	my	.	.	.	.	.
.	.	8B-	bones	.	.	D	.	.
=46	=46	=46	=46	=46	=46	=46	=46	=46
1BM	B:maj	8B	_	1r	.	.	104.809	.
.	.	16B	_	.	.	.	.	.
.	.	16A	_	.	.	.	.	.
.	.	8G	_	.	.	.	.	.
.	.	8r	.	.	.	.	.	.
.	.	8r	.	.	.	.	.	.
.	.	8G	and	.	.	.	.	.
.	.	8B	this	.	.	.	.	.
.	.	[8c	lone-	.	.	D	.	.
=47	=47	=47	=47	=47	=47	=47	=47	=47
1CM	C:maj	8c]	_	1r	.	.	107.131	.
.	.	8c	-li-	.	.	.	.	.
.	.	8c	-ness	.	.	.	.	.
.	.	8c	won't	.	.	.	.	.
.	.	8c	leave	.	.	.	.	.
.	.	8B	me	.	.	.	.	.
.	.	8B	a-	.	.	.	.	.
.	.	8B	-lone	.	.	D	.	.
=48	=48	=48	=48	=48	=48	=48	=48	=48
1AM	A:maj	4A	_	1r	.	.	109.454	.
.	.	4r	.	.	.	.	.	.
.	.	2r	.	.	.	.	.	.
=49	=49	=49	=49	=49	=49	=49	=49	=49
1GM	G:maj	8G	Two	1r	.	.	111.777	newline
.	.	4G	thou-	.	.	.	.	.
.	.	8G	-sand	.	.	.	.	.
.	.	8A	miles	.	.	.	.	.
.	.	16G	_	.	.	.	.	.
.	.	16E	_	.	.	.	.	.
.	.	8G	I	.	.	.	.	.
.	.	8B-	roamed	.	.	D	.	.
=50	=50	=50	=50	=50	=50	=50	=50	=50
1BM	B:maj	8B	_	1r	.	.	114.106	.
.	.	16B	_	.	.	.	.	.
.	.	16A	_	.	.	.	.	.
.	.	8G	_	.	.	.	.	.
.	.	8r	.	.	.	.	.	.
.	.	8r	.	.	.	.	.	.
.	.	8r	.	.	.	.	.	.
.	.	8B	just	.	.	.	.	.
.	.	8B	to	.	.	.	.	.
=51	=51	=51	=51	=51	=51	=51	=51	=51
1CM	C:maj	4c	make	1r	.	.	116.436	.
.	.	4c	this	.	.	.	.	.
.	.	8c	dock	.	.	.	.	.
.	.	8B	my	.	.	.	.	.
.	.	8B-	_	.	.	.	.	.
.	.	[8A	home	.	.	D	.	.
=52	=52	=52	=52	=52	=52	=52	=52	=52
1AM	A:maj	8A]	_	1r	.	.	118.766	.
.	.	8r	.	.	.	.	.	.
.	.	8r	.	.	.	.	.	.
.	.	16B	Now	.	.	.	.	.
.	.	16A	_	.	.	.	.	.
.	.	8G	_	.	.	.	.	.
.	.	8G	I'm	.	.	.	.	.
.	.	8G	just	.	.	.	.	.
.	.	8E	gon'	.	.	.	.	.
=53	=53	=53	=53	=53	=53	=53	=53	=53
*>Letter>C	*>Letter>C	*>Letter>C	*>Letter>C	*>Letter>C	*>Letter>C	*>Letter>C	*>Letter>C	*>Letter>C
*>Label>Chorus	*>Label>Chorus	*>Label>Chorus	*>Label>Chorus	*>Label>Chorus	*>Label>Chorus	*>Label>Chorus	*>Label>Chorus	*>Label>Chorus
1GM	G:maj	4G	sit	1r	.	.	121.096	newline
.	.	8G	at	.	.	.	.	.
.	.	8E	the	.	.	.	.	.
.	.	8G	dock	.	.	.	.	.
.	.	8G	of	.	.	.	.	.
.	.	8G	the	.	.	.	.	.
.	.	8A	bay	.	.	C	.	.
=54	=54	=54	=54	=54	=54	=54	=54	=54
1Em	E:min(9)	16G	_	1r	.	.	123.4	.
.	.	16E	_	.	.	.	.	.
.	.	8r	.	.	.	.	.	.
.	.	4r	.	.	.	.	.	.
.	.	8A	watch-	.	.	.	.	.
.	.	8B	-ing	.	.	.	.	.
.	.	8B	the	.	.	.	.	.
.	.	16d	tide	.	.	.	.	.
.	.	16e	_	.	.	.	.	.
=55	=55	=55	=55	=55	=55	=55	=55	=55
1GM	G:maj	8d	_	1r	.	.	125.705	.
.	.	16B	_	.	.	.	.	.
.	.	16A	_	.	.	.	.	.
.	.	8G	_	.	.	.	.	.
.	.	8r	.	.	.	.	.	.
.	.	8B	roll	.	.	.	.	.
.	.	8A	_	.	.	.	.	.
.	.	8G	a-	.	.	.	.	.
.	.	8A	-way	.	.	C	.	.
=56	=56	=56	=56	=56	=56	=56	=56	=56
1Em	E:min(9)	16G	_	1r	.	.	128.009	.
.	.	16E	_	.	.	.	.	.
.	.	8r	.	.	.	.	.	.
.	.	8r	.	.	.	.	.	.
.	.	8r	.	.	.	.	.	.
.	.	4e	ooh	.	.	.	.	.
.	.	16B	wee	.	.	.	.	.
.	.	16A	_	.	.	.	.	.
.	.	8G	_	.	.	.	.	.
=57	=57	=57	=57	=57	=57	=57	=57	=57
1GM	G:maj	8G	sit-	1r	.	.	130.313	newline
.	.	8G	-tin	.	.	.	.	.
.	.	8G	on	.	.	.	.	.
.	.	8G	the	.	.	.	.	.
.	.	8G	dock	.	.	.	.	.
.	.	8G	of	.	.	.	.	.
.	.	8G	the	.	.	.	.	.
.	.	8A	bay	.	.	C	.	.
=58	=58	=58	=58	=58	=58	=58	=58	=58
1AM	A:maj	16G	_	1r	.	.	132.638	.
.	.	16E	_	.	.	.	.	.
.	.	8r	.	.	.	.	.	.
.	.	4r	.	.	.	.	.	.
.	.	8A	wast-	.	.	.	.	.
.	.	8G	_	.	.	.	.	.
.	.	8E	-in	.	.	.	.	.
.	.	[8G	time	.	.	.	.	.
=59	=59	=59	=59	=59	=59	=59	=59	=59
1GM	G:maj	4.G]	_	1r	.	.	134.963	.
.	.	16B	_	.	.	.	.	.
.	.	16A	_	.	.	.	.	.
.	.	4.G	_	.	.	.	.	.
.	.	[8E	_	.	.	.	.	.
=60	=60	=60	=60	=60	=60	=60	=60	=60
1EM	E:maj	4E]	_	2r	.	.	137.288	.
.	.	4r	.	.	.	.	.	.
.	.	4r	.	4r	.	.	.	.
.	.	8r	.	8r	.	.	.	.
*	*	*	*	*Hstimme	*	*	*	*
!	!	!	!	!Whistling	!	!	!	!
.	.	8r	.	8ee	_	.	.	.
=61	=61	=61	=61	=61	=61	=61	=61	=61
*>Letter>A2	*>Letter>A2	*>Letter>A2	*>Letter>A2	*>Letter>A2	*>Letter>A2	*>Letter>A2	*>Letter>A2	*>Letter>A2
*>Label>Outro	*>Label>Outro	*>Label>Outro	*>Label>Outro	*>Label>Outro	*>Label>Outro	*>Label>Outro	*>Label>Outro	*>Label>Outro
1GM	G:maj	1r	.	4gg	_	.	139.613	newline
.	.	.	.	4ee	_	.	.	.
.	.	.	.	8dd	_	.	.	.
.	.	.	.	4b	_	.	.	.
.	.	.	.	8b-	_	.	.	.
=62	=62	=62	=62	=62	=62	=62	=62	=62
1GM	G:maj	8r	.	8b	_	.	141.932	.
.	.	8r	.	8a	_	.	.	.
.	.	4r	.	8b	_	.	.	.
.	.	.	.	8a	_	.	.	.
.	.	2r	.	8a	_	.	.	.
.	.	.	.	4g	_	.	.	.
.	.	.	.	8a	_	.	.	.
=63	=63	=63	=63	=63	=63	=63	=63	=63
1GM	G:maj	1r	.	8b	_	.	144.251	.
.	.	.	.	8a	_	.	.	.
.	.	.	.	8b	_	.	.	.
.	.	.	.	8a	_	.	.	.
.	.	.	.	8a	_	.	.	.
.	.	.	.	8g	_	.	.	.
.	.	.	.	8a	_	.	.	.
.	.	.	.	8a	_	.	.	.
=64	=64	=64	=64	=64	=64	=64	=64	=64
1Em	E:min	1r	.	8b	_	.	146.571	.
.	.	.	.	8dd	_	.	.	.
.	.	.	.	4dd	_	.	.	.
.	.	.	.	4.b	_	.	.	.
.	.	.	.	8ee	_	.	.	.
=65	=65	=65	=65	=65	=65	=65	=65	=65
*>Label>>Fadeout	*>Label>>Fadeout	*>Label>>Fadeout	*>Label>>Fadeout	*>Label>>Fadeout	*>Label>>Fadeout	*>Label>>Fadeout	*>Label>>Fadeout	*>Label>>Fadeout
1GM	G:maj	1r	.	4gg	_	.	148.89	newline
.	.	.	.	4ee	_	.	.	.
.	.	.	.	8dd	_	.	.	.
.	.	.	.	8b	_	.	.	.
.	.	.	.	8b-	_	.	.	.
.	.	.	.	8b-	_	.	.	.
=66	=66	=66	=66	=66	=66	=66	=66	=66
1GM	G:maj	1r	.	8b	_	.	151.216	.
.	.	.	.	8a	_	.	.	.
.	.	.	.	8b	_	.	.	.
.	.	.	.	8a	_	.	.	.
.	.	.	.	8a	_	.	.	.
.	.	.	.	4g	_	.	.	.
.	.	.	.	8a	_	.	.	.
=67	=67	=67	=67	=67	=67	=67	=67	=67
1GM	G:maj	1r	.	8b	_	.	153.543	.
.	.	.	.	8dd	_	.	.	.
.	.	.	.	8b	_	.	.	.
.	.	.	.	8a	_	.	.	.
.	.	.	.	8a	_	.	.	.
.	.	.	.	8g	_	.	.	.
.	.	.	.	8a	_	.	.	.
.	.	.	.	8a	_	.	.	.
=68	=68	=68	=68	=68	=68	=68	=68	=68
1Em	E:min	1r	.	8b	_	.	155.869	.
.	.	.	.	8dd	_	.	.	.
.	.	.	.	4dd	_	.	.	.
.	.	.	.	4.b	_	.	.	.
.	.	.	.	8r	.	.	.	.
1r;	1r	r;	.	r;	.	.	159.359	.
1r;	1r	r;	.	r;	.	.	164.78	.
*-	*-	*-	*-	*-	*-	*-	*-	*-
!!!BillboardChartDate: 1968/03/23
!!!BillboardPeak: 1
!!!BillboardWeeksOnChart: 16
!!!COC: Otis Redding
!!!ENC: Nathaniel Condit-Schultz
!!!EST: Awating manual error checking and editing.
!!!OTL: (Sittin' On) The Dock Of The Bay
!!!RDF**chordsym: original McGill chord annotation + (implied pitch class set, with bass pitch in first position)
!!!RDF**harmony: **recip + pitch class of root + harmonic quality
!!!RDF**leadinstrument: original McGill primary instrumentation annotation
!!!RDF**phrase: newline = linebreak in original McGill transcription
!!!RDF**timestamp: McGill audio timestamp in seconds
!!!RDT: 2017/01/12/
!!!SampleActualRank: 1
!!!SampleID#: 0645
!!!SampleTargetRank: 1
!!!MBID: 846d8eef-a973-4666-b5d2-4bcb0d79f68a